X:1
T:Glentown Harbour
C:Jimmy McHugh
Z:Ted Hastings <ted:HASTINGS.NU> irtrad-l 2000-11-26
M:6/8
L:1/8
R:Jig
K:D
E | F2d BAF | FEF EDB, | DFA dcd  | BAF  EDE |
    F2d BAF | FEF EDE  | F2E FDB, | DED  D2 :|
E | F2E FAd | fed BAF  | DFA dcd  | Be^d efg |
    f3  edB | AdB AFE  | F2E FDB, | DED  D2 :|
